X:005
T:Baile an tSamhraidh (slide) 
T:Ballintoura, Teahan's, Knocknagree, others
B:CRE3.039 (same)
F:file ID: cre.3/005baile
R:slide
Q:180
M:12/8
L:1/8
K:G
ded A2G E2D A2D|EDE G2E c2E G2E|
"5"ded BAG E2D A2D|1 EDE G2E D3 D3:|\
[2 EDE G2E D3 DEG||
"9"A2d dcd e2g gfg|a2e g2e d2c A2G|
"13"A2d dcd e2g gfg|a2e g2e d3 d2c|
"17"A2d dcd e2g gfg|a2e g2e d2c ABc|
"21"ded BAG E2D A2D|EDE G2E D3 D3|]

%%%

